modules/linearicons/icons/bug.svg

<?xml version="1.0" encoding="utf-8"?>
<!-- Generated by IcoMoon.io -->
<!DOCTYPE svg PUBLIC "-//W3C//DTD SVG 1.1//EN" "http://www.w3.org/Graphics/SVG/1.1/DTD/svg11.dtd">
<svg version="1.1" xmlns="http://www.w3.org/2000/svg" xmlns:xlink="http://www.w3.org/1999/xlink" width="20" height="20" viewBox="0 0 20 20">
<path fill="#000000" d="M17.5 12h-1.515c-0.062-1.099-0.33-2.153-0.781-3.102 1.036-0.305 1.795-1.264 1.795-2.398 0-0.276-0.224-0.5-0.5-0.5s-0.5 0.224-0.5 0.5c0 0.761-0.57 1.392-1.306 1.487-0.174-0.266-0.365-0.521-0.571-0.762-0.108-0.126-0.219-0.246-0.333-0.362 0.14-0.439 0.21-0.896 0.21-1.363 0-2.481-2.019-4.5-4.5-4.5s-4.5 2.019-4.5 4.5c0 0.467 0.071 0.924 0.21 1.363-0.114 0.116-0.225 0.236-0.333 0.362-0.207 0.241-0.397 0.496-0.571 0.762-0.736-0.095-1.306-0.726-1.306-1.487 0-0.276-0.224-0.5-0.5-0.5s-0.5 0.224-0.5 0.5c0 1.134 0.759 2.093 1.795 2.398-0.451 0.949-0.718 2.003-0.781 3.102h-1.514c-0.276 0-0.5 0.224-0.5 0.5s0.224 0.5 0.5 0.5h1.515c0.062 1.099 0.33 2.153 0.781 3.102-1.036 0.305-1.795 1.264-1.795 2.398 0 0.276 0.224 0.5 0.5 0.5s0.5-0.224 0.5-0.5c0-0.761 0.57-1.392 1.306-1.487 0.174 0.266 0.365 0.521 0.571 0.762 1.23 1.435 2.871 2.225 4.622 2.225s3.393-0.79 4.622-2.225c0.207-0.241 0.397-0.496 0.571-0.762 0.736 0.095 1.306 0.726 1.306 1.487 0 0.276 0.224 0.5 0.5 0.5s0.5-0.224 0.5-0.5c0-1.134-0.759-2.093-1.795-2.398 0.451-0.949 0.718-2.003 0.781-3.102h1.514c0.276 0 0.5-0.224 0.5-0.5s-0.224-0.5-0.5-0.5zM9.5 2c1.93 0 3.5 1.57 3.5 3.5 0 0.215-0.019 0.426-0.057 0.634-1.022-0.738-2.205-1.134-3.443-1.134s-2.421 0.395-3.443 1.134c-0.038-0.208-0.057-0.419-0.057-0.634 0-1.93 1.57-3.5 3.5-3.5zM4 12.5c0-3.385 2.201-6.173 5-6.473v12.946c-2.799-0.3-5-3.088-5-6.473zM10 18.973v-12.946c2.799 0.3 5 3.088 5 6.473s-2.201 6.173-5 6.473z"></path>
</svg>

<svg xmlns="http://www.w3.org/2000/svg" width="20" height="20"><path d="M17.5 12h-1.515a8.318 8.318 0 0 0-.781-3.102A2.504 2.504 0 0 0 16.999 6.5a.5.5 0 0 0-1 0c0 .761-.57 1.392-1.306 1.487a7.452 7.452 0 0 0-.904-1.124A4.505 4.505 0 0 0 9.499 1a4.505 4.505 0 0 0-4.29 5.863 7.211 7.211 0 0 0-.904 1.124A1.502 1.502 0 0 1 2.999 6.5a.5.5 0 0 0-1 0c0 1.134.759 2.093 1.795 2.398A8.337 8.337 0 0 0 3.013 12H1.499a.5.5 0 0 0 0 1h1.515a8.318 8.318 0 0 0 .781 3.102A2.504 2.504 0 0 0 2 18.5a.5.5 0 0 0 1 0c0-.761.57-1.392 1.306-1.487.174.266.365.521.571.762C6.107 19.21 7.748 20 9.499 20s3.393-.79 4.622-2.225c.207-.241.397-.496.571-.762a1.502 1.502 0 0 1 1.306 1.487.5.5 0 0 0 1 0 2.504 2.504 0 0 0-1.795-2.398A8.337 8.337 0 0 0 15.984 13h1.514a.5.5 0 0 0 0-1zm-8-10a3.504 3.504 0 0 1 3.443 4.134C11.921 5.396 10.738 5 9.5 5s-2.421.395-3.443 1.134A3.504 3.504 0 0 1 9.5 2zM4 12.5c0-3.385 2.201-6.173 5-6.473v12.946c-2.799-.3-5-3.088-5-6.473zm6 6.473V6.027c2.799.3 5 3.088 5 6.473s-2.201 6.173-5 6.473z"/></svg>
